X: 20051
Q: "Affet.o"
M: 3/4
L: 1/8
K: Em
[|\
c2B2A2 | (G2F2)E2 | (G>A)B2TA2 | {GA}c6 |\
b2a2g2 | d4g2 |
{b}a2g2Tf2 | {ef}g6 |\
b2a2g2 | (a2g2)f2 | g2f2e2 | ^d2e2f2 |\
(g2f2)b2 | B4e2 | {g}f2e2T^d2 | e6 |]


